X: 865
T: Was'nt She Fond of Me?
N:"Collected by F.O'Neill"
B:O'Neill's 865
Z:Transcribed by Dan G. Petersen, dangp@post6.tele.dk
M:6/8
L:1/8
K:Am
(g/f/)|:eAA eAA|efe edB|eAA eAA|ded BAG|
eAA eAA|efe edB|de^f gfg|edc BAG:|
de^f {a}gfg|edB eAA|de^f {a}gfg|edc BAG|
de^f {a}gfg|aba abc'|bag g=fe|dge dBG:|


